X:147
M:4/4
L:1/8
K:G
f | gede fgag | fddc cAAB | cBAF GABG | ABAG FD2f | 
gfde fgaf | gaba gedc | BcGB cAFA | G2GG G3 :|| 

